z_dist/img/icons/crypto/ve-chain-VET.svg

<svg width="64" height="64" viewBox="0 0 64 64" fill="none" xmlns="http://www.w3.org/2000/svg">
<rect y="0.000488281" width="64" height="64" rx="4" fill="#51CBFF"/>
<path d="M29.2683 48.9868L12.3534 14.534C12.0785 13.9843 12.4918 13.3337 13.1008 13.3337H18.9619C19.2763 13.3337 19.571 13.5117 19.7094 13.7866L32.0624 38.7813C33.1638 41.0237 36.3494 41.0237 37.4509 38.7813L49.7643 13.8063C49.9027 13.5315 50.1974 13.3535 50.5118 13.3535H51.2395C51.6725 13.3535 51.9474 13.8063 51.7516 14.1801L34.6587 48.9868C33.5573 51.2272 30.3697 51.2272 29.2683 48.9868Z" fill="white"/>
<path opacity="0.1" d="M29.2682 48.9868L19.7093 13.8063C19.5709 13.5117 19.2565 13.3535 19.0014 13.3535H13.1206C12.472 13.3535 12.0982 14.0021 12.3533 14.5538L29.2682 48.9868Z" fill="white"/>
<path opacity="0.1" d="M32.0623 38.7991L12.3533 14.534C12.118 13.9645 12.4719 13.3931 13.0216 13.3337H18.9816C19.3158 13.3535 19.5709 13.5691 19.6895 13.7866L32.0623 38.7991Z" fill="white"/>
</svg>

<svg width="64" height="64" fill="none" xmlns="http://www.w3.org/2000/svg"><rect width="64" height="64" rx="4" fill="#51CBFF"/><path d="M29.268 48.987L12.353 14.534c-.274-.55.139-1.2.748-1.2h5.86c.315 0 .61.178.748.453L32.062 38.78c1.102 2.243 4.287 2.243 5.389 0l12.313-24.975a.842.842 0 01.748-.452h.727c.434 0 .708.452.513.826L34.659 48.987c-1.102 2.24-4.29 2.24-5.39 0z" fill="#fff"/><path opacity=".1" d="M29.268 48.987l-9.559-35.18a.813.813 0 00-.708-.454h-5.88a.837.837 0 00-.768 1.2l16.915 34.434z" fill="#fff"/><path opacity=".1" d="M32.062 38.8L12.353 14.533c-.235-.57.119-1.14.669-1.2h5.96a.88.88 0 01.707.453l12.373 25.012z" fill="#fff"/></svg>
